assets/img/konversia.svg

<svg width="120" height="120" viewBox="0 0 120 120" fill="none" xmlns="http://www.w3.org/2000/svg">
<circle cx="60" cy="60" r="60" fill="#F3F3F3"/>
<path d="M31.5597 37.6597L71.5995 49.5874C71.6948 49.6156 71.7939 49.6298 71.8912 49.6298C72.07 49.6298 72.2477 49.5835 72.4053 49.4905L88.6648 40.0169C89.0213 39.8098 89.2146 39.4111 89.1573 39.0064C89.0996 38.6013 88.8019 38.2705 88.4039 38.1684L48.3636 27.9487C48.1309 27.8891 47.8862 27.9132 47.6699 28.0162L31.4114 35.7819C31.0332 35.9627 30.8055 36.3557 30.8392 36.7706C30.8713 37.186 31.1582 37.5394 31.5597 37.6597ZM48.2171 29.9956L85.5105 39.5141L71.7592 47.527L34.6553 36.4734L48.2171 29.9956Z" fill="#4BB1E9"/>
<path d="M87.635 43.4741L71.7577 52.7254L32.1414 40.9228C31.6048 40.7622 31.0377 41.0663 30.8763 41.6002C30.7145 42.1344 31.0203 42.6964 31.5582 42.8571L72.0217 54.9119L88.6633 45.2151C89.1487 44.9336 89.3094 44.3151 89.0257 43.8345C88.7406 43.3528 88.1174 43.1901 87.635 43.4741Z" fill="#4BB1E9"/>
<path d="M87.635 48.7547L71.7577 58.0063L32.1414 46.2041C31.6048 46.0454 31.0377 46.3475 30.8763 46.8815C30.7145 47.4152 31.0203 47.9776 31.5582 48.1384L72.0207 60.1922L88.6623 50.4954C89.1478 50.2134 89.3085 49.595 89.0245 49.1143C88.7406 48.6327 88.1174 48.4708 87.635 48.7547Z" fill="#6ADF91"/>
<path d="M87.635 54.0356L71.7577 63.2879L32.1414 51.485C31.6048 51.3252 31.0377 51.6274 30.8763 52.1622C30.7145 52.6966 31.0203 53.2584 31.5582 53.4191L72.0207 65.4736L88.6623 55.7763C89.1477 55.4949 89.3085 54.8759 89.0245 54.3952C88.7406 53.9144 88.1174 53.7542 87.635 54.0356Z" fill="#6ADF91"/>
<path d="M87.635 59.3187L71.7577 68.5703L32.1414 56.7664C31.6048 56.6062 31.0377 56.9099 30.8763 57.4441C30.7145 57.9781 31.0203 58.5403 31.5582 58.7006L72.0207 70.756L88.6623 61.0592C89.1477 60.7774 89.3085 60.1588 89.0245 59.6781C88.7398 59.1974 88.1174 59.0357 87.635 59.3187Z" fill="#6ADF91"/>
<path d="M87.635 64.5984L71.7577 73.8501L32.1414 62.0486C31.6048 61.8889 31.0377 62.192 30.8763 62.7258C30.7145 63.2602 31.0203 63.8219 31.5582 63.9827L72.0207 76.0365L88.6623 66.3402C89.1477 66.0584 89.3085 65.4393 89.0245 64.9591C88.7406 64.4771 88.1174 64.3159 87.635 64.5984Z" fill="#6ADF91"/>
<path d="M87.635 69.8805L71.7567 79.1323L32.1414 67.3292C31.6048 67.1696 31.0377 67.4712 30.8763 68.0066C30.7145 68.541 31.0203 69.1027 31.5582 69.2635L72.0217 81.3188L88.6633 71.6217C89.1487 71.3398 89.3094 70.7215 89.0257 70.2405C88.7406 69.7592 88.1174 69.5977 87.635 69.8805Z" fill="#6ADF91"/>
<path d="M87.635 75.1634L71.7577 84.4152L32.1414 72.6121C31.6048 72.4505 31.0377 72.756 30.8763 73.2895C30.7145 73.8239 31.0203 74.3856 31.5582 74.5464L72.0207 86.6007L88.6623 76.9034C89.1477 76.6216 89.3085 76.0035 89.0245 75.5225C88.7406 75.0412 88.1174 74.8806 87.635 75.1634Z" fill="#6ADF91"/>
<path d="M87.635 80.4443L71.7577 89.6959L32.1414 77.893C31.6048 77.7344 31.0377 78.0369 30.8763 78.5704C30.7145 79.1046 31.0203 79.6666 31.5582 79.8273L72.0207 91.8815L88.6623 82.1843C89.1477 81.9035 89.3085 81.2842 89.0245 80.8042C88.7406 80.323 88.1174 80.1613 87.635 80.4443Z" fill="#6ADF91"/>
</svg>

<svg width="120" height="120" fill="none" xmlns="http://www.w3.org/2000/svg"><circle cx="60" cy="60" r="60" fill="#F3F3F3"/><path d="M31.56 37.66L71.6 49.587a1.032 1.032 0 00.805-.097l16.26-9.473c.356-.207.55-.606.492-1.01a1.014 1.014 0 00-.753-.839l-40.04-10.22a1.021 1.021 0 00-.694.068l-16.26 7.766a1.007 1.007 0 00.149 1.878zm16.657-7.664l37.293 9.518-13.75 8.013-37.105-11.054 13.562-6.477z" fill="#4BB1E9"/><path d="M87.635 43.474l-15.877 9.251L32.14 40.923a1.018 1.018 0 00-1.265.677 1.008 1.008 0 00.682 1.257l40.464 12.055 16.641-9.697c.486-.281.646-.9.363-1.38a1.018 1.018 0 00-1.391-.36z" fill="#4BB1E9"/><path d="M87.635 48.755l-15.877 9.251L32.14 46.204a1.02 1.02 0 00-1.265.678 1.008 1.008 0 00.682 1.256L72.02 60.192l16.641-9.697c.486-.282.646-.9.362-1.38a1.017 1.017 0 00-1.389-.36z" fill="#6ADF91"/><path d="M87.635 54.036l-15.877 9.252L32.14 51.485a1.017 1.017 0 00-1.265.677 1.008 1.008 0 00.682 1.257L72.02 65.474l16.641-9.698c.486-.281.646-.9.362-1.38a1.02 1.02 0 00-1.389-.36z" fill="#6ADF91"/><path d="M87.635 59.319L71.758 68.57 32.14 56.766a1.018 1.018 0 00-1.265.678 1.008 1.008 0 00.682 1.257L72.02 70.756l16.641-9.697c.486-.282.646-.9.362-1.38a1.018 1.018 0 00-1.389-.36z" fill="#6ADF91"/><path d="M87.635 64.598L71.758 73.85 32.14 62.05a1.018 1.018 0 00-1.265.677 1.008 1.008 0 00.682 1.257L72.02 76.038l16.641-9.697c.486-.282.646-.9.362-1.38a1.018 1.018 0 00-1.389-.362z" fill="#6ADF91"/><path d="M87.635 69.88l-15.878 9.252L32.14 67.33a1.017 1.017 0 00-1.265.678 1.008 1.008 0 00.682 1.256L72.022 81.32l16.641-9.697c.486-.282.646-.9.363-1.382a1.02 1.02 0 00-1.391-.36z" fill="#6ADF91"/><path d="M87.635 75.163l-15.877 9.252L32.14 72.612a1.017 1.017 0 00-1.265.678 1.008 1.008 0 00.682 1.256L72.02 86.601l16.641-9.698c.486-.281.646-.9.362-1.38a1.018 1.018 0 00-1.389-.36z" fill="#6ADF91"/><path d="M87.635 80.444l-15.877 9.252L32.14 77.893a1.02 1.02 0 00-1.265.677 1.008 1.008 0 00.682 1.257L72.02 91.882l16.641-9.698c.486-.28.646-.9.362-1.38a1.018 1.018 0 00-1.389-.36z" fill="#6ADF91"/></svg>
